assets/icons/custom/custom107.svg

<svg width="100px" height="100px" viewBox="0 0 100 100" xmlns="http://www.w3.org/2000/svg">
    <g stroke="none" stroke-width="1" fill="none" fill-rule="evenodd">
        <path d="M77.7336063,51.4795079 L71.7663932,51.4795079 L71.7663932,77.6680325 C71.780971,78.013594 71.648347,78.3491328 71.4014481,78.5913439 C71.1545491,78.8335549 70.8165298,78.959723 70.4713112,78.9385243 L58.5450817,78.9385243 C57.9038407,78.861382 57.4415695,78.2862729 57.5040981,77.6434423 L57.5040981,57.4467211 L42.9877047,57.4467211 L42.9877047,77.6680325 C43.0365552,78.2989409 42.5825051,78.8574945 41.9549178,78.9385243 L30.0286883,78.9385243 C29.6789701,78.9603711 29.3367141,78.8309567 29.088944,78.5831865 C28.8411739,78.3354164 28.7117595,77.9931605 28.7336063,77.6434423 L28.7336063,51.4795079 L22.7663932,51.4795079 C22.2499997,51.4795079 21.7254096,51.2172128 21.7254096,50.7008194 C21.4631145,50.1844259 21.4631145,49.6598358 21.9877046,49.4057375 L49.4713112,21.9221309 C49.9877046,21.4057374 50.7663932,21.4057374 51.0286883,21.9221309 L78.5122948,49.4303276 C79.0286882,49.6926226 79.0286882,50.2090161 78.7745899,50.7254095 C78.5204916,51.241803 78.2581964,51.5040981 77.7336063,51.5040981 L77.7336063,51.4795079 L77.7336063,51.4795079 Z" fill="#FFFFFF"></path>
    </g>
</svg>

<?xml version="1.0"?><svg width="100" height="100" viewBox="0 0 100 100" xmlns="http://www.w3.org/2000/svg"><path d="m77.7 51.5h-5.9v26.2c0 0.3-0.2 0.6-0.4 0.9-0.2 0.2-0.6 0.4-0.9 0.3h-12c-0.6 0-1.1-0.6-1-1.3v-20.2h-14.5v20.3c0 0.6-0.4 1.2-1 1.2h-12c-0.3 0.1-0.7-0.1-0.9-0.3-0.3-0.3-0.4-0.6-0.4-1v-26.1h-5.9c-0.5 0-1.1-0.3-1.1-0.8-0.2-0.5-0.2-1 0.3-1.3l27.5-27.5c0.5-0.5 1.3-0.5 1.5 0l27.5 27.5c0.5 0.3 0.5 0.8 0.3 1.3-0.3 0.5-0.5 0.8-1.1 0.8v0z" fill="#fff"></path></svg>
